X:1
T:F# minor Jacob French, 1802
T:Isaac Watts, 1706 The Penitent Pardoned   88. 88. (L. M.)
T:Farmington
T:Transcribed from Harmony of Harmony, 1802
%%score [ 1 2 3 4 ]
L:1/8
Q:1/4=90
M:4/4
K:A
V:1 treble nm="Tr." snm="Tr."
V:2 treble nm="C." snm="C."
V:3 treble-8 nm="T." snm="T."
V:4 bass nm="B." snm="B."
V:1
 c4 c2 B2 | A8 | c4 d2 c2 | c8 | z4 c4 | c2 d2 e4 | (f2 cd) e2 d2 | c8- | c4 c4 | c2 e2 e4 | %10
w: 1.~Hence from my|soul,|my sins, de-|part;|Your|fa- tal friend-|ship * * now I|see;|* Long|have you dwelt|
w: 2.~You gave my|dy-|ing Lord his|wound,|Yet|I ca- ressed|your * * vipe- rous|brood;|* And|in my heart-|
 A4 c2 c2 | B4 f4 | e2 ed c2 d2 | c4 c4 | c8 |] %15
w: too near my|heart; Hence,|to e- * ter- nal|dis- tance|flee.|
w: strings lapped you|round, You,|the vile * mur- derers|of my|God.|
V:2
 F4 F2 E2 | E8 | A4 B2 G2 | A8 | z4 A4 | G2 G2 A4 | (A2 F2) G2 F2 | ^E8 | z4 ^E4 | F2 G2 A4 | %10
w: 3.~Black hea- vy|thoughts|like moun- tains|roll|O'er|my poor breast|with * bo- ding|fears;|And,|cru- shing hard|
w: 4.~For- give my|trea-|sons, Prince of|grace!|The|bloo- dy Jews|were * trai- tors|too;|Yet|thou hast praysed|
 A4 A2 A2 | G4 A4 | A2 G2 F2 F2 | (E2 C2) E4 | F8 |] %15
w: my tor- tured|soul, Wring|through my eyes the|bri- * ny|tears.|
w: for that curs'd|race: "Fa-|ther, they know not|what * they|do."|
V:3
 F4 A2 B2 | c8 | f4 f2 ^e2 | f8 | z4 f4 | e2 d2 c4 | A4 B2 A2 | G8 | z4 G4 | A2 B2 c4 | f4 e2 e2 | %11
w: 5.~Great Ad- vo-|cate!|look down and|see|A|wretch whose smar-|ting sor- rows|bleed!|O|plead the same|ex- cuse for|
w: 6.~Peace, my com-|plaints:|let eve- ry|groan|Be|still, and si-|lence wait his|love;|Com-|pas- sions dwell|a- midst his|
 e4 d4 | c2 B2 A2 B2 | A4 G4 | F8 |] %15
w: me! For,|Lord, I knew not|what I|did.|
w: throne, And|through his in- most|bo- wels|move.|
V:4
 F,4 F,2 G,2 | A,8 | F,4 B,2 C2 | F,8- | F,4 F,4 | C2 B,2 A,4 | F,4 E,2 F,2 | C,8- | C,4 C,4 | %9
w: 7.~Lo, from the|ev-|er- las- ting|skies,|* Gent-|ly as mor-|ning dews dis-|till,|* The|
w: 8.~How sweet the|voice|of par- don|sounds!|* Sweet|the re- lief|to deep dis-|tress!|* I|
 F,2 E,2 A,4 | F,4 A,2 A,2 | E,4 F,4 | A,2 E,2 F,2 B,,2 | C,4 C,4 | F,,8 |] %15
w: dove im- mor-|tal down- ward|flies, With|peace- ful o- live|in his|bill.|
w: feel the balm|that heals my|wounds, And|all my powers a-|dore the|grace.|

